X:1
T:Fuggi,o mio core
T:Antonio Cifra
T:Source : Le diversi Scherzi a uno, a due et tre voci---Libro secondo---Roma---G.B.Robletti---1613. Editor : André Vierendeels (13/11/16).
T:Notes : Original clefs : C1, C1, F4, F4 Editorial accidentals above the staff m3 in B : first "D" notated as "C" in original print 
T:Romano
T:Fuggi,o mio core
T:©
T:©
T:©
T:©
T:©
C:Antonio Cifra
Z:©
%%score [ 1 2 3 ] 4
L:1/8
Q:1/4=100
M:4/4
K:F
V:1 treble nm="Soprano" snm="S"
V:2 treble nm="Alto" snm="A"
V:3 bass nm="Bass" snm="B"
V:4 bass nm="MusicXML Part"
V:1
 cF c2 AD F2- | F2 E2 z2 FC | F4 D2 F2 | G2 G2 z2 A2 | B3 B B2 c2 | A4 AAdc | B4- BBcd | %7
w: Fug- gi, fug- gi, mio co-|* re fug- gi,|fug- gi'o, mio|co- re, non|ve- di la man|bel- la che con- giu-|ra- * ta coi begl'|
 _e4 d2 B2- | B2 A2 BB d2- | ddcB ^c2 d2 | d^c c2 A2 z2 | z2 A2 ddcB |"^-natural" c4 z2 B2 | %13
w: oc- chi, an-|* chel- la per far|_ ti prig- gio- nier vient'|à fe- ri- re,|per far ti prig- gio-|nier vient'|
 A3 G G4 | A8 | z4 A4 | d8- | d4 ^c4 | z2 A4 A=B | G4 c2 cd | B4 A2 A2- | AG F2 A2 d2- | %22
w: à fe- ri-|re,|ma|las-|* so|ec- co'un so-|spir nun- tio'in- fe-|li- ce, ch'e-|* sce dal pet- to'è|
 d2 c4 =B2 | c4 z2 AB | c2 cc d4 | c4 z4 | z FAB c4- | ccBA G3 G | G4 F2 CD | E2 EE F4 | %30
w: _ di- *|ce, che piu|gio- ia'il fug- gi-|re,|e- gli'è gia pre-|* so'e- gli con- vien mo-|ri- re, che piu|gio- v'il fug- gi-|
 EEFG AAGF | E2 F2 C3 D | E2 F4 E2 | F8 |] %34
w: r'e- gliè gia pre- so, e gli con-|vien mo- ri- *||re.|
V:2
 z2 FC F2 DF | G2 G2 cF c2 | A3 D F4- | F2 E2 z2 F2 | G3 G G3 A | ^F4 F4 |"^-natural" z FBA G4- | %7
w: Fug- gi, fug- gi, mio|co- re, fug- gi fug-|gi'o, mio co-|* re, non|ve- di la man|bel- la|che con giu- ra|
 GGBc d3 B | c4 B4 | z d f3 fed | e2 E2 FFED | E2 A2 AG G2- | G2 ^F2 G2 G2 | GF F4 E2 | F8 | z8 | %16
w: _ ta coi begl' oc- chi'an-|chel- la|per far- ti prig- gio-|nier, per far ti pri- gio-|nier vient' à fe- ri-|* * re, vinet'|à fe- ri- *|re,||
 z4 d4 | f4 e4 | z2 c4 cF | E2 E2 EE F2- | F2 E2 z2 c2- | cB A2 f4 | e4 d4 | c4 z4 | z4 z2 FG | %25
w: ma|las- so|ec- co'un so-|spir nun- tio'in- fe- li-|* ce, ch'e-|* sce dal pet-|to'e di-|ce,|che piu|
 A2 AA B4 | AcFG AAGF | E4 E2 F2- | F2 E2 z2 EF | G2 GG A4 | GGAB ccBA | GGFG AAGF | G3 G G4 | %33
w: gio- va'il fug- gi-|r'e- gli'è gia pre- so, e- gli con-|vien mo- ri-|* re, che piu|gio- vo'il fug- gi-|r'e- gli'è gia pre- so, e gli con-|vien, è gia pre- so, e gli con-|vien mo- ri-|
 F8 |] %34
w: re.|
V:3
 z8 | CC, C2 F,2 z2 | D,A,, D,2 B,,3 A,, | C,2 C,2 z2 F,2 | _E,3 E, E,2 C,2 | D,4 D,4 | %6
w: |Fug- gi, fug- gi,|fug- gi, fu- g'o, mio|co- re, non|ve- di la man|bel- la|
 z D,G,F, _E,4- | E,_E,G,A, B,2 D,2 | F,4 B,,B,, B,2- | B,B,A,G, A,4 | z2 A,,2 D,D,C,B,, | %11
w: che con- giu- ra-|* ta coi begl' oc- chian-|chel- la per far|_ ti pig- gio- nier,|per far ti prig- gio-|
 C,4 B,,2 A,,G,, | A,,4 G,,4 | B,,2 F,B,, C,4 | F,,8 | F,8 | B,8 | A,8 | z2 F,4 F,D, | %19
w: nier vient' à fe-|ri- re,|vient à fe- ri-|re|ma|las-|so|ec- co'un so-|
 C,4 A,,2 A,,B,, | G,,4 F,,4 | z2 F,3 E, D,2 | A,3 E, G,4 | C,4 z2 F,G, | A,2 A,A, B,4 | %25
w: spir nun- tio'in- fe-|li- ce,|ch'e- sce dal|pet- to'e di-|ce, che piu|gio- va'il fug- gi-|
 F,4 z B,,D,E, | F,4- F,F,E,D, | C,6 B,,2 | C,2 C,2 z4 | z4 z F,A,B, | C2 F,2 z4 | %31
w: re, e- gli'è gia|pre- * so'e- gli con-|vien mo-|ri- re,|e- gli'è gia|pre- so,|
 z C,D,E, F,F,E,D, | C,3 B,, C,4 | F,,8 |] %34
w: e- gli'è gia pre- so'e- gli con-|vien mo- ri-|re.|
V:4
"^BC" F,4- F,B,, D,2 | C,4 F,,4 | D,A,, D,2 B,,3 A,, | C,4 F,4 | _E,6 C,2 | D,8 | D,2 G,F, _E,4- | %7
 E,2 G,A, B,2 D,2 | F,4 B,,4 | B,2 A,G, A,4 | A,,4 D,2 C,B,, | C,4 B,,2 A,,G,, | A,,4 G,,4 | %13
 D,2 F,B,, C,4 | F,,8 | F,8 | B,8 | A,8 | F,6 F,D, | C,4 A,,2 A,,B,, | G,,4 F,,4 | F,6 D,2 | %22
 A,3 E, G,4 | C,4 F,4 | A,4 B,4 | F,4 B,,4 | F,6 E,D, | C,6 B,,2 | C,4 F,,2 C,2- | C,2 C,2 F,4 | %30
 C2 F,3 A,, B,,2 | C,2 D,E, F,2 E,D, | C,3 B,, C,4 | F,,8 |] %34

